X:1
T:Title
%%score 1 { ( 2 5 ) | ( 3 4 ) }
L:1/8
M:3/4
K:Eb
V:1 treble nm="Akkordion"
V:2 treble nm="Grand Piano"
V:5 treble 
V:3 treble 
V:4 treble 
V:1
 z6[Q:1/4=100] | z6 | z6 | z6 | z6 |[M:1/8] B, |[M:3/4] G>G F3 C | E>E D3 B, | c>c B3 F | %9
[M:5/8] A>G G3 |[M:1/8] G |[M:3/4] e>d c3 G | c>B A3 E |[M:15/16] B->BB,- B,3- B,/E | %14
[M:3/4] F3 E3 |] %15
V:2
 z2 z2 z G | e>d c3 G | c>B A3 [CE] | [EB]2 [G,B,]3 [B,E] | .D2 z2[K:bass] z2 |[M:1/8] z | %6
[M:3/4][K:treble] [B,EG]>[B,EG] z2[K:bass] E,C | z2 [A,B,D]4 | z2 [B,GB]4[K:bass][K:treble] | %9
[M:5/8] [B,FA]>[B,EG] [B,EG]3 |[M:1/8] G |[M:3/4] [EGe]>[FGd] [EGc]3 [=EG] | %12
 [CAd]>[C=EB] [CFA]3 [C_E] |[M:15/16] [EB]->[EB][G,B,]- [G,B,]3- [G,B,]/[B,E] | %14
[M:3/4] .D2 z2[K:bass] z2 |] %15
V:3
 z6 | [CG]->[CFG] [CEG]4 | E2 z2 z2[K:bass] | [B,,G,B,]2 [B,,E,]3 [B,,G,] | z/ C/ D2 E,,3 | %5
[M:1/8] B, |[M:3/4] [E,,E,]2 [E,,E,]2 E,,[A,B,] | [F,,F,]2 z2 z2 | %8
 z z/ [B,A]/ [B,,,B,,]2 B,,,[B,D] |[M:5/8] [E,,E,]2 [E,,E,]3 |[M:1/8] z | %11
[M:3/4] [C,,C,]>[D,,D,] [E,,E,]2 [C,,C,][B,C] | [F,,F,]>[G,,G,] [A,,A,]3 [=A,,_G,] | %13
[M:15/16] [B,,G,B,]->[B,,G,B,][B,,E,]- [B,,E,]3- [B,,E,]/[B,,G,] |[M:3/4] z/ C/ D2 E,,3 |] %15
V:4
 x6 | E2 z2 z2 | [CG]->[C=EG] [CF]3[K:bass] [=A,,_G,] | x6 | [B,,,B,,]4 z2 |[M:1/8] x |[M:3/4] x6 | %7
 z z/ A,/ B,,2 .B,,,2 | [B,,,B,,]2 z2 z2 |[M:5/8] x5 |[M:1/8] x |[M:3/4] x6 | x6 |[M:15/16] x15/2 | %14
[M:3/4] [B,,,B,,]4 z2 |] %15
V:5
 x6 | x6 | x6 | x6 | [A,B,F]3[K:bass] [E,G,B,E]3 |[M:1/8] x | %6
[M:3/4][K:treble] z2 [A,B,F]4[K:bass] | [A,B,E]>[B,E] F,2 B,,B, | %8
 [B,Ac]>c z2[K:bass] B,,[K:treble]F |[M:5/8] x5 |[M:1/8] x |[M:3/4] x6 | x6 |[M:15/16] x15/2 | %14
[M:3/4] [A,B,F]3[K:bass] [E,G,B,E]3 |] %15

